X:1
T:Title
%%score { 1 | 2 }
L:1/8
M:4/4
K:G
V:1 treble nm="Grand Piano"
V:2 treble 
V:1
 z4 z2[Q:1/4=100] D>D | B2 B2 c3 B | B2 A2 G2 F>G | A2 D>D ^C>D E>G | A6 D>D | B2 B2 c>B A>G | %6
 A2 G2 E2 F>E | D2 c<c B<B [CFA]>[CFA] |[M:3/4] [B,DG]6 |[M:1/4] [B,DG]>[B,DG] | %10
[M:4/4] [Ec]<[Ec] [Ec]>[Ec] [Ec]2 [Gc]>[Gc] | B<B B>B B2 B>B | A2 A<A B<B [G^c]>[Gc] | %13
[M:3/4] [Fd]6 |[M:1/4] G>A |[M:3/4] BG [EG]>E D2 |[M:1/4] G>A |[M:3/4] BG [EG]>E D2 |[M:1/4] D>D | %19
[M:4/4] E2 [Ed][EGc] [DGB]<[DGB] [DFB]>[CFA][Q:1/4=99][Q:1/4=97][Q:1/4=96][Q:1/4=94][Q:1/4=93][Q:1/4=91][Q:1/4=90][Q:1/4=88][Q:1/4=87][Q:1/4=85][Q:1/4=84][Q:1/4=82][Q:1/4=81][Q:1/4=79][Q:1/4=78][Q:1/4=76] | %20
[M:3/4] [G,B,DG]6 |] %21
V:2
 z4 z2 [G,B,]>[G,B,] | [G,DG]2 [G,DG]2 [G,EG]3 [G,DG] | %2
 [G,DG]2[K:bass] [F,CD]2 [G,B,D]2 [D,A,D]>[D,B,D] | %3
 [D,F,D]2 [F,A,]>[F,A,] [G,A,]>[F,A,] [E,A,^C]>[E,A,C] | [D,F,D]6 [G,B,]>[G,B,] | %5
 [G,DG]2 [G,DG]2 [G,EG]>[G,DG] [G,CD]>[K:bass][G,B,D] | [F,CD]2 [G,B,D]2 [C,G,C]2 [C,G,C]>[C,G,C] | %7
 [D,G,B,]2 [F,A,D]<[F,A,D][K:treble] [G,DG]<[G,DG][K:bass] D,>D, |[M:3/4] G,,6 |[M:1/4] G,>G, | %10
[M:4/4] [C,G,]<[C,G,] [C,G,]>[C,G,] [C,G,]2 [E,G,]>[E,C] | %11
 [G,DG]<[G,DG] [G,DG]>[G,DG] [G,DG]2 [G,DG]>[G,DG] | %12
 [F,D]2 [F,D]<[F,D][K:treble] [G,DG]<[G,DG][K:bass] [E,A,]>[E,A,] |[M:3/4] [D,A,]6 | %14
[M:1/4] [G,B,D]>[G,CD] |[M:3/4] [G,D][G,B,D] [C,C]>[C,G,C] [G,B,]2 |[M:1/4] [G,B,D]>[G,CD] | %17
[M:3/4] [G,D][G,B,D] [C,C]>[C,G,C] [G,B,]2 |[M:1/4] [B,,G,]>[B,,G,] | %19
[M:4/4] [C,G,C]2 [C,G,]C, D,<D, D,>D, |[M:3/4] G,,6 |] %21

